icons/solid/sound-off.svg

<svg width="24" height="24" viewBox="0 0 24 24" fill="none" xmlns="http://www.w3.org/2000/svg">
<path fill-rule="evenodd" clip-rule="evenodd" d="M13 4.70325C13 2.84644 10.6899 1.99187 9.48149 3.40167L5.83939 7.65079C5.6494 7.87243 5.37206 8 5.08013 8H5C3.34315 8 2 9.34314 2 11V13C2 14.6569 3.34315 16 5 16H5.08013C5.37206 16 5.6494 16.1276 5.83939 16.3492L6.55216 15.7383L5.83939 16.3492L9.48149 20.5983C10.6899 22.0081 13 21.1536 13 19.2967V4.70325ZM16.2929 9.29289C16.6834 8.90237 17.3166 8.90237 17.7071 9.29289L19 10.5858L20.2929 9.29289C20.6834 8.90237 21.3166 8.90237 21.7071 9.29289C22.0976 9.68342 22.0976 10.3166 21.7071 10.7071L20.4142 12L21.7071 13.2929C22.0976 13.6834 22.0976 14.3166 21.7071 14.7071C21.3166 15.0976 20.6834 15.0976 20.2929 14.7071L19 13.4142L17.7071 14.7071C17.3166 15.0976 16.6834 15.0976 16.2929 14.7071C15.9024 14.3166 15.9024 13.6834 16.2929 13.2929L17.5858 12L16.2929 10.7071C15.9024 10.3166 15.9024 9.68342 16.2929 9.29289Z" fill="currentColor"/>
</svg>

<svg width="24" height="24" fill="none" xmlns="http://www.w3.org/2000/svg"><path fill-rule="evenodd" clip-rule="evenodd" d="M13 4.703c0-1.857-2.31-2.711-3.519-1.301L5.84 7.65A1 1 0 015.08 8H5a3 3 0 00-3 3v2a3 3 0 003 3h.08a1 1 0 01.76.35l.712-.612-.713.611 3.642 4.25c1.209 1.41 3.519.555 3.519-1.302V4.703zm3.293 4.59a1 1 0 011.414 0L19 10.586l1.293-1.293a1 1 0 111.414 1.414L20.414 12l1.293 1.293a1 1 0 01-1.414 1.414L19 13.414l-1.293 1.293a1 1 0 01-1.414-1.414L17.586 12l-1.293-1.293a1 1 0 010-1.414z" fill="currentColor"/></svg>
